X:118
M:2/4
L:1/8
K:D
e | fA AA | BA AA | fe eB/c/ | ed c/B/A | 
fA AA | BA AA | fe eB | ed d :|| 

